X:1
T:Sialkot, 88.88.88
T:Sialkot, 88.88.88
T:George Coles Stebbins, 1912
T:Public Domain Courtesy of the Cyber Hymnal™
C:George Coles Stebbins, 1912
Z:Public Domain
Z:Courtesy of the Cyber Hymnal™
%%score ( 1 2 ) ( 3 4 )
L:1/8
Q:1/4=110
M:4/4
K:Ab
V:1 treble 
V:2 treble 
V:3 bass 
V:4 bass 
V:1
 [CE]2 | [Ec]2 [DB]2 [CA]2 E2 | [EG]3 [DF] [CE]2 [EA]2 | [DF]2 [EG]2 [EA]2 [Fd]2 | %4
 [Ec]3 [DB] !fermata![CA]2 [Ec]2 | [EB]2 [Ec]2 [A=d]2 [AB]2 | [Ge]3 [Ec] [EB]2 [EG]2 | %7
 [EF]2 [EG]2 [EA]2 [Ec]2 | B3 [B,_D] !fermata![B,E]2 [DE]2 | [Cc]2 [DB]2 [EA]2 [CE]2 | %10
 [EG]3 [DF] [CE]2 [EA]2 | [DF]2 [EG]2 [EA]2 [Fd]2 | [Ec]3 [DB] !fermata![CA]2 |] %13
V:2
 x2 | x6 E2 | x8 | x8 | x8 | x8 | x8 | x8 | (E2 =D) x5 | x8 | x8 | x8 | x6 |] %13
V:3
 [A,,A,]2 | [A,,E,]2 (F,G,) [A,,A,]2 [C,A,]2 | [D,A,]3 [F,A,] A,2 [C,A,]2 | %3
 [D,A,]2 [B,,B,]2 [C,A,]2 [D,A,]2 | (A,2 G,)[E,G,] !fermata![A,,A,]2 [A,,A,]2 | %5
 [E,G,]2 A,2 [F,B,]2 [=D,B,]2 | [E,B,]3 [E,A,] [E,G,]2 [G,B,]2 | [A,C]2 [G,C]2 [F,C]2 [A,,F,]2 | %8
 (G,2 F,)[B,,A,] !fermata![E,G,]2 [E,G,]2 | [A,,A,]2 (F,G,) [C,A,]2 [A,,A,]2 | %10
 [D,A,]3 [F,A,] A,2 [C,A,]2 | [D,A,]2 [B,,B,]2 [C,A,]2 [D,A,]2 | %12
 (A,2 G,)[E,G,] !fermata![A,,A,]2 |] %13
V:4
 x2 | x2 A,,2 x4 | x4 A,2 x2 | x8 | E,3 x5 | x2 A,2 x4 | x8 | x8 | B,,3 x5 | x2 B,,2 x4 | %10
 x4 A,2 x2 | x8 | E,3 x3 |] %13

